public/img/anti-list-bg.svg

<svg width="1920" height="2577" fill="none" xmlns="http://www.w3.org/2000/svg"><path fill-rule="evenodd" clip-rule="evenodd" d="M1629.67 621.455c-.43 12.452-3.13 24.541-9.17 36.094l9.17-36.094zm-8.53-53.632c2.56 8.802 4.77 17.549 6.31 26.189l-21.11 83.652c-5.77 6.383-12.32 12.059-19.48 17.074l34.28-126.915zm-12.71-39.657c1.22 3.747 2.46 7.498 3.7 11.249 1.59 4.812 3.18 9.624 4.72 14.428l-38.02 146.107c-6.27 3.761-12.91 7.08-19.81 9.983l49.41-181.767zm-13.53-49.415c1.11 3.536 2.07 7.139 2.82 10.831 1.12 5.504 2.49 11.047 4.03 16.617l-60.74 210.222a213.512 213.512 0 01-12.25 3.327l66.14-240.997zm-15.13-36.036c.97 2.144 1.96 4.282 2.95 6.421 1.89 4.083 3.78 8.168 5.58 12.299l-67.64 260.101a242.159 242.159 0 01-17.47 2.852l76.58-281.673zm-13.11-41.128c.11.958.24 1.913.38 2.865 1.27 8.418 3.7 16.358 6.68 24.078l-81.94 297.037c-2.63.213-5.27.384-7.89.516l82.77-324.496zm8.62-105.509c1.88 11.266.88 23.348-1.03 35.79l-99.97 394.52c-3.68.049-7.33.019-10.93-.086-1.4-.041-2.79-.107-4.18-.198l116.11-430.026zm-15.77-30.72a78.635 78.635 0 015.33 6.228 51.192 51.192 0 014.46 6.811l-116.12 447.157c-6.11-.719-12.06-1.908-17.89-3.494l124.22-456.702zm-21.97-16.849c5.27 2.931 10.22 6.291 14.77 10.094l-132.42 458.285a169.633 169.633 0 01-9.73-4.239l127.38-464.14zm-22.84-9.586c3.54 1.072 7.02 2.29 10.4 3.658l-121.41 466.861c-4.95-2.566-9.83-5.349-14.65-8.294l125.66-462.225zm-24.01-4.969c5.95.706 11.85 1.771 17.62 3.207l-126.88 459.193a399.057 399.057 0 01-7.07-4.7l116.33-457.7zm-17.51-1.052c2.65.007 5.31.083 7.96.228l-114.36 453.269c-4.51-3.18-8.99-6.431-13.46-9.705l119.86-443.792zm-23.49 1.754c4.19-.647 8.45-1.118 12.76-1.408l-114.39 439.583c-.57-.412-1.13-.825-1.69-1.238-4.29-3.157-8.58-6.313-12.89-9.425l116.21-427.512zm-29.05 9.369c5.27-3.092 10.98-5.506 17.28-7.038.73-.18 1.48-.355 2.22-.523l-120.23 416.114c-.71-.485-1.42-.968-2.13-1.447a301.044 301.044 0 00-7.52-4.923l110.38-402.183zm-34.68 34.2c5.58-7.384 11.3-14.471 17.55-20.69l-99.99 384.489c-4.66-2.827-9.4-5.606-14.19-8.374l96.63-355.425zm-36.86 44.986c7.99-7.255 15-15.758 21.7-24.569l-90.91 329.568c-2.49-1.439-4.99-2.881-7.48-4.332l76.69-300.667zm-36.22 26.033c3.98-2.504 7.96-5.029 11.89-7.63l-68.98 272.227c-4.16-2.624-8.23-5.31-12.17-8.085l69.26-256.512zm-32.75 21.994c5.95-4.64 12.23-8.913 18.65-13.065l-62.83 241.932c-5.2-4.027-10.11-8.258-14.6-12.766l58.78-216.101zM1234 427.766c3.92-5.822 7.9-11.571 11.83-17.24 3.06-4.413 6.08-8.779 9.02-13.093a95.81 95.81 0 013.45-4.751l-51.16 177.031c-3.1-4.94-5.72-10.199-7.75-15.834L1234 427.766zm-39.56 97.931c-.15-19.018 5.7-37.679 14.52-55.823l-14.52 55.823z" fill="#C9DF55"/><path fill-rule="evenodd" clip-rule="evenodd" d="M1102.23 552.776c-36.11-35.906-52.8-93.26-41.92-143.004 10.43-47.701 59.04-74.013 96.28-105.593 29.87-25.328 60.73-47.572 98.11-59.247 38.7-12.087 77.91-11.248 118.35-8.361 58.3 4.161 137.29-20.508 168.6 28.846 31.45 49.586-29.76 109.145-45.12 165.821-11.14 41.104-6.43 86.61-32.42 120.341-26.29 34.112-66.53 56.336-109.04 63.216-40.04 6.48-76.22-17.197-115.61-26.859-47.01-11.532-102.91-1.027-137.23-35.16z" fill="#CE3B65"/><path fill-rule="evenodd" clip-rule="evenodd" d="M305.233 557.628c-37.855 34.056-96.047 47.537-145.11 33.914-47.048-13.064-70.62-63.06-100.084-101.997-23.63-31.227-44.127-63.272-53.709-101.243-9.92-39.31-6.905-78.421-1.777-118.638C11.945 211.689-8.3 131.45 42.715 102.934c51.256-28.651 107.324 35.773 163.061 54.253 40.422 13.403 86.119 11.226 118.355 39.054 32.6 28.143 52.555 69.551 57.065 112.381 4.246 40.331-21.403 75.147-33.237 113.937-14.124 46.3-6.739 102.694-42.726 135.069zM1679.23 1160.78c-36.11-35.91-52.8-93.26-41.92-143.01 10.43-47.699 59.04-74.011 96.28-105.591 29.87-25.327 60.73-47.572 98.11-59.247 38.7-12.087 77.91-11.248 118.35-8.361 58.3 4.161 137.29-20.508 168.6 28.846 31.45 49.586-29.76 109.145-45.12 165.823-11.14 41.1-6.43 86.61-32.42 120.34-26.29 34.11-66.53 56.34-109.04 63.22-40.04 6.47-76.22-17.2-115.61-26.86-47.01-11.54-102.91-1.03-137.23-35.16z" fill="#67BAC3"/><path fill-rule="evenodd" clip-rule="evenodd" d="M1271 2130c43.32 3.17 55.93 54.7 97.49 63.75 49.53 10.78 113.44-34.88 153.35-9.14 37.76 24.34 31.36 78.7 18.9 120.19-11.55 38.5-55.84 62.34-83.59 95.42-31.78 37.87-37.93 106.85-90.57 112.17-56.26 5.68-66.87-69.89-114.69-91.44-37.26-16.79-90.69 4.43-124.72-16.43-41.71-25.57-81.18-63.27-79.6-108.82 1.61-46.11 44.8-87.34 87.53-119.03 38.25-28.37 87.9-50.18 135.9-46.67zm141.58-519.33c-19.26 17.2-46.5 1.3-67.54 15.32-25.09 16.72-31.98 62.91-59.48 69.34-26.01 6.08-46.61-19.13-59.2-41.6-11.68-20.85-3.56-49.64-6.23-75.18-3.06-29.23-30.01-60.38-10.53-85.07 20.83-26.41 57.52.3 86.5-11.24 22.58-8.99 35.59-40.6 58.58-46.53 28.17-7.26 60.59-8.55 79.41 10.95 19.05 19.75 18.83 55.25 14.71 86.62-3.68 28.08-14.88 58.32-36.22 77.39z" fill="#C9DF55"/><path fill-rule="evenodd" clip-rule="evenodd" d="M541.669 2022.46c-.426 12.45-3.124 24.54-9.174 36.09l9.174-36.09zm-8.528-53.64c2.558 8.81 4.768 17.55 6.305 26.19l-21.106 83.65c-5.771 6.39-12.325 12.06-19.478 17.08l34.279-126.92zm-12.711-39.65c1.215 3.74 2.456 7.49 3.696 11.25 1.591 4.81 3.182 9.62 4.721 14.42l-38.02 146.11c-6.269 3.76-12.905 7.08-19.805 9.98l49.408-181.76zm-13.53-49.42c1.108 3.54 2.066 7.14 2.82 10.83 1.123 5.51 2.494 11.05 4.029 16.62l-60.743 210.22a210.253 210.253 0 01-12.248 3.33l66.142-241zm-15.135-36.03c.976 2.14 1.966 4.28 2.956 6.42 1.89 4.08 3.782 8.16 5.579 12.3l-67.642 260.1a247.224 247.224 0 01-17.473 2.85l76.58-281.67zm-13.105-41.13c.11.96.236 1.91.379 2.86 1.27 8.42 3.698 16.36 6.679 24.08l-81.935 297.04c-2.637.21-5.268.38-7.889.51l82.766-324.49zm8.622-105.51c1.876 11.26.879 23.35-1.031 35.79l-99.97 394.52c-3.681.05-7.329.02-10.933-.09-1.4-.04-2.792-.1-4.176-.2l116.11-430.02zm-15.77-30.72a79.124 79.124 0 015.333 6.23 51.972 51.972 0 014.458 6.81l-116.124 447.15c-6.104-.71-12.061-1.9-17.893-3.49l124.226-456.7zm-21.967-16.85c5.261 2.93 10.214 6.29 14.765 10.09l-132.421 458.29a171.196 171.196 0 01-9.727-4.24l127.383-464.14zm-22.84-9.59c3.537 1.07 7.011 2.29 10.4 3.66l-121.412 466.86c-4.949-2.56-9.829-5.35-14.656-8.29l125.668-462.23zm-24.018-4.97c5.954.71 11.856 1.78 17.624 3.21L293.43 2097.35c-2.366-1.53-4.721-3.1-7.068-4.7l116.325-457.7zm-17.503-1.05c2.65.01 5.305.08 7.959.23L278.782 2087.4c-4.507-3.18-8.99-6.43-13.464-9.71l119.866-443.79zm-23.494 1.76c4.189-.65 8.452-1.12 12.756-1.41l-114.391 439.58c-.561-.41-1.122-.82-1.684-1.24-4.292-3.15-8.583-6.31-12.886-9.42l116.205-427.51zm-29.048 9.37c5.272-3.1 10.982-5.51 17.273-7.04.74-.18 1.483-.36 2.23-.53l-120.236 416.12a297.368 297.368 0 00-9.646-6.37l110.379-402.18zm-34.68 34.2c5.58-7.39 11.296-14.48 17.546-20.7l-99.991 384.49c-4.652-2.82-9.401-5.6-14.186-8.37l96.631-355.42zm-36.86 44.98c7.989-7.25 15.002-15.76 21.698-24.57l-90.908 329.57c-2.497-1.44-4.992-2.88-7.478-4.33l76.688-300.67zm-36.221 26.03c3.977-2.5 7.954-5.02 11.887-7.63l-68.981 272.23a293.508 293.508 0 01-12.165-8.08l69.259-256.52zm-32.748 22c5.948-4.64 12.227-8.92 18.646-13.07l-62.828 241.94c-5.206-4.03-10.111-8.26-14.599-12.77l58.781-216.1zM146 1828.77c3.92-5.83 7.902-11.57 11.83-17.24 3.057-4.42 6.082-8.78 9.017-13.1a99.041 99.041 0 013.449-4.75l-51.153 177.03c-3.104-4.94-5.721-10.2-7.755-15.83L146 1828.77zm-39.558 97.93c-.154-19.02 5.701-37.68 14.517-55.83l-14.517 55.83z" fill="#476FB2"/><path fill-rule="evenodd" clip-rule="evenodd" d="M364.952 1937.95c-26.468 34.43-76.441 16.63-106.853 46.36-36.248 35.44-33.265 113.92-76.712 133.11-41.095 18.14-82.972-17.1-110.779-50.32-25.798-30.82-21.35-80.93-33.713-122.3-14.154-47.36-68.38-90.45-43.874-137.33 26.2-50.12 95.149-17.41 139.443-45.5 34.518-21.89 46.183-78.17 82.326-95.12 44.295-20.78 97.481-33.01 134.654-6.63 37.627 26.7 48.31 85.45 51.276 138.56 2.655 47.55-6.435 101.01-35.768 139.17zM912.626 867.397c12.136-2.821 24.511-3.353 37.238-.509l-37.238.509zm-49.581 22.155c7.837-4.754 15.711-9.159 23.656-12.886l86.263-1.329c7.662 3.917 14.844 8.773 21.544 14.379l-131.463-.164zm-34.998 22.569a2123.75 2123.75 0 009.904-6.49c4.234-2.785 8.469-5.571 12.708-8.304l150.971-1.204c5.26 5.078 10.18 10.625 14.78 16.535l-188.363-.537zm-44.21 25.891a109.185 109.185 0 019.728-5.534c5.023-2.514 10.021-5.276 15.002-8.204l218.783 4.099a209.36 209.36 0 016.39 10.964l-249.903-1.325zm-30.873 23.969c1.817-1.498 3.625-3.009 5.434-4.521 3.452-2.885 6.907-5.772 10.429-8.58l268.743-2.184a242.84 242.84 0 017.29 16.134l-291.896-.849zm-36.317 23.331a80.959 80.959 0 002.668-1.11c7.8-3.411 14.838-7.816 21.52-12.699l308.125 2.032a239.85 239.85 0 012.54 7.485l-334.853 4.292zm-104.131 19.058c10.393-4.735 22.319-6.909 34.831-8.293l406.943-5.853c1.01 3.542 1.92 7.074 2.76 10.586a119 119 0 01.89 4.08l-445.424-.52zm-25.575 23.2a81.3 81.3 0 014.631-6.76 52.715 52.715 0 015.42-6.08l461.978-3.91c.89 6.08 1.28 12.14 1.27 18.19l-473.299-1.44zm-10.57 25.59c1.466-5.84 3.425-11.5 5.916-16.88l476.953 8.94c-.41 3.5-.94 7-1.57 10.49l-481.299-2.55zm-3.329 24.55c.117-3.7.392-7.37.833-11l482.375-3.92c-1.19 5.45-2.62 10.88-4.21 16.31l-478.998-1.39zm1.435 24.48a142.67 142.67 0 01-1.477-17.85l476.39 3.35c-.87 2.68-1.78 5.36-2.71 8.04l-472.203 6.46zm3.527 17.18c-.681-2.56-1.297-5.15-1.846-7.75l467.422-7.2c-1.9 5.18-3.88 10.35-5.88 15.52l-459.696-.57zm7.791 22.23a149.908 149.908 0 01-4.67-11.95l454.205-3.63c-.25.65-.5 1.3-.76 1.95-1.93 4.97-3.86 9.93-5.75 14.89l-443.025-1.26zm16.588 25.62c-4.355-4.29-8.168-9.18-11.28-14.85-.366-.67-.728-1.34-1.084-2.02l433.061 8.11c-.29.81-.57 1.62-.85 2.43-.97 2.81-1.9 5.66-2.8 8.54l-417.047-2.21zm42.029 24.62c-8.58-3.48-16.907-7.16-24.536-11.58l397.264-3.23c-1.52 5.23-2.97 10.54-4.4 15.88l-368.328-1.07zm53.01 23.92c-9.079-5.84-19.111-10.4-29.357-14.58l341.865 2.25c-.74 2.79-1.48 5.57-2.24 8.35l-310.268 3.98zm34.542 28.22c-3.45-3.19-6.92-6.38-10.453-9.5l280.799-4.04c-1.45 4.69-2.991 9.32-4.647 13.85l-265.699-.31zm29.741 25.92c-6.025-4.54-11.782-9.5-17.457-14.62l249.948-2.12c-2.538 6.08-5.351 11.91-8.54 17.42l-223.951-.68zm66.564 29.88c-6.64-2.28-13.225-4.63-19.719-6.95-5.056-1.81-10.057-3.6-14.985-5.31a97.383 97.383 0 01-5.484-2.1l184.241 3.45c-3.965 4.28-8.364 8.17-13.278 11.6l-130.775-.69zm104.842 12.78c-18.326 5.09-37.867 4.28-57.678.47l57.678-.47z" fill="#EFC825"/><path fill-rule="evenodd" clip-rule="evenodd" d="M725.588 959.478c52.468-26.254 102.147-79.68 158.93-64.955 55.995 14.52 91.162 76.949 104.553 133.287 12.949 54.46-16.539 107.17-34.815 160.08-17.87 51.73-22.364 117.46-70.211 143.96-47.66 26.39-107.01.57-158.457-17.33-38.094-13.26-61-48.32-94.554-70.72-35.719-23.85-87.254-26.76-107.908-64.43-21.604-39.41-26.776-95.83.469-131.56 27.547-36.13 86.137-18.41 127.744-36.61 28.324-12.384 46.602-37.888 74.249-51.722z" fill="#476FB2"/></svg>

<svg width="1920" height="2577" viewBox="0 0 1920 2577" fill="none" xmlns="http://www.w3.org/2000/svg">
<path fill-rule="evenodd" clip-rule="evenodd" d="M1629.67 621.455C1629.24 633.907 1626.54 645.996 1620.5 657.549L1629.67 621.455ZM1621.14 567.823C1623.7 576.625 1625.91 585.372 1627.45 594.012L1606.34 677.664C1600.57 684.047 1594.02 689.723 1586.86 694.738L1621.14 567.823ZM1608.43 528.166C1609.65 531.913 1610.89 535.664 1612.13 539.415C1613.72 544.227 1615.31 549.039 1616.85 553.843L1578.83 699.95C1572.56 703.711 1565.92 707.03 1559.02 709.933L1608.43 528.166ZM1594.9 478.751C1596.01 482.287 1596.97 485.89 1597.72 489.582C1598.84 495.086 1600.21 500.629 1601.75 506.199L1541.01 716.421C1536.97 717.65 1532.88 718.758 1528.76 719.748L1594.9 478.751ZM1579.77 442.715C1580.74 444.859 1581.73 446.997 1582.72 449.136C1584.61 453.219 1586.5 457.304 1588.3 461.435L1520.66 721.536C1514.87 722.703 1509.03 723.65 1503.19 724.388L1579.77 442.715ZM1566.66 401.587C1566.77 402.545 1566.9 403.5 1567.04 404.452C1568.31 412.87 1570.74 420.81 1573.72 428.53L1491.78 725.567C1489.15 725.78 1486.51 725.951 1483.89 726.083L1566.66 401.587ZM1575.28 296.078C1577.16 307.344 1576.16 319.426 1574.25 331.868L1474.28 726.388C1470.6 726.437 1466.95 726.407 1463.35 726.302C1461.95 726.261 1460.56 726.195 1459.17 726.104L1575.28 296.078ZM1559.51 265.358C1561.39 267.338 1563.17 269.413 1564.84 271.586C1566.55 273.797 1568.03 276.069 1569.3 278.397L1453.18 725.554C1447.07 724.835 1441.12 723.646 1435.29 722.06L1559.51 265.358ZM1537.54 248.509C1542.81 251.44 1547.76 254.8 1552.31 258.603L1419.89 716.888C1416.61 715.583 1413.37 714.165 1410.16 712.649L1537.54 248.509ZM1514.7 238.923C1518.24 239.995 1521.72 241.213 1525.1 242.581L1403.69 709.442C1398.74 706.876 1393.86 704.093 1389.04 701.148L1514.7 238.923ZM1490.69 233.954C1496.64 234.66 1502.54 235.725 1508.31 237.161L1381.43 696.354C1379.06 694.818 1376.71 693.249 1374.36 691.654L1490.69 233.954ZM1473.18 232.902C1475.83 232.909 1478.49 232.985 1481.14 233.13L1366.78 686.399C1362.27 683.219 1357.79 679.968 1353.32 676.694L1473.18 232.902ZM1449.69 234.656C1453.88 234.009 1458.14 233.538 1462.45 233.248L1348.06 672.831C1347.49 672.419 1346.93 672.006 1346.37 671.593C1342.08 668.436 1337.79 665.28 1333.48 662.168L1449.69 234.656ZM1420.64 244.025C1425.91 240.933 1431.62 238.519 1437.92 236.987C1438.65 236.807 1439.4 236.632 1440.14 236.464L1319.91 652.578C1319.2 652.093 1318.49 651.61 1317.78 651.131C1315.32 649.465 1312.81 647.826 1310.26 646.208L1420.64 244.025ZM1385.96 278.225C1391.54 270.841 1397.26 263.754 1403.51 257.535L1303.52 642.024C1298.86 639.197 1294.12 636.418 1289.33 633.65L1385.96 278.225ZM1349.1 323.211C1357.09 315.956 1364.1 307.453 1370.8 298.642L1279.89 628.21C1277.4 626.771 1274.9 625.329 1272.41 623.878L1349.1 323.211ZM1312.88 349.244C1316.86 346.74 1320.84 344.215 1324.77 341.614L1255.79 613.841C1251.63 611.217 1247.56 608.531 1243.62 605.756L1312.88 349.244ZM1280.13 371.238C1286.08 366.598 1292.36 362.325 1298.78 358.173L1235.95 600.105C1230.75 596.078 1225.84 591.847 1221.35 587.339L1280.13 371.238ZM1234 427.766C1237.92 421.944 1241.9 416.195 1245.83 410.526C1248.89 406.113 1251.91 401.747 1254.85 397.433C1255.96 395.802 1257.11 394.219 1258.3 392.682L1207.14 569.713C1204.04 564.773 1201.42 559.514 1199.39 553.879L1234 427.766ZM1194.44 525.697C1194.29 506.679 1200.14 488.018 1208.96 469.874L1194.44 525.697Z" fill="#C9DF55"/>
<path fill-rule="evenodd" clip-rule="evenodd" d="M1102.23 552.776C1066.12 516.87 1049.43 459.516 1060.31 409.772C1070.74 362.071 1119.35 335.759 1156.59 304.179C1186.46 278.851 1217.32 256.607 1254.7 244.932C1293.4 232.845 1332.61 233.684 1373.05 236.571C1431.35 240.732 1510.34 216.063 1541.65 265.417C1573.1 315.003 1511.89 374.562 1496.53 431.238C1485.39 472.342 1490.1 517.848 1464.11 551.579C1437.82 585.691 1397.58 607.915 1355.07 614.795C1315.03 621.275 1278.85 597.598 1239.46 587.936C1192.45 576.404 1136.55 586.909 1102.23 552.776Z" fill="#CE3B65"/>
<path fill-rule="evenodd" clip-rule="evenodd" d="M305.233 557.628C267.378 591.684 209.186 605.165 160.123 591.542C113.075 578.478 89.5024 528.482 60.0388 489.545C36.4086 458.318 15.9119 426.273 6.33027 388.302C-3.58945 348.992 -0.574745 309.881 4.55303 269.664C11.9449 211.689 -8.30016 131.45 42.7153 102.934C93.9714 74.283 150.039 138.707 205.776 157.187C246.198 170.59 291.895 168.413 324.131 196.241C356.731 224.384 376.686 265.792 381.196 308.622C385.442 348.953 359.793 383.769 347.959 422.559C333.835 468.859 341.22 525.253 305.233 557.628Z" fill="#67BAC3"/>
<path fill-rule="evenodd" clip-rule="evenodd" d="M1679.23 1160.78C1643.12 1124.87 1626.43 1067.52 1637.31 1017.77C1647.74 970.071 1696.35 943.759 1733.59 912.179C1763.46 886.852 1794.32 864.607 1831.7 852.932C1870.4 840.845 1909.61 841.684 1950.05 844.571C2008.35 848.732 2087.34 824.063 2118.65 873.417C2150.1 923.003 2088.89 982.562 2073.53 1039.24C2062.39 1080.34 2067.1 1125.85 2041.11 1159.58C2014.82 1193.69 1974.58 1215.92 1932.07 1222.8C1892.03 1229.27 1855.85 1205.6 1816.46 1195.94C1769.45 1184.4 1713.55 1194.91 1679.23 1160.78Z" fill="#67BAC3"/>
<path fill-rule="evenodd" clip-rule="evenodd" d="M1271 2130C1314.32 2133.17 1326.93 2184.7 1368.49 2193.75C1418.02 2204.53 1481.93 2158.87 1521.84 2184.61C1559.6 2208.95 1553.2 2263.31 1540.74 2304.8C1529.19 2343.3 1484.9 2367.14 1457.15 2400.22C1425.37 2438.09 1419.22 2507.07 1366.58 2512.39C1310.32 2518.07 1299.71 2442.5 1251.89 2420.95C1214.63 2404.16 1161.2 2425.38 1127.17 2404.52C1085.46 2378.95 1045.99 2341.25 1047.57 2295.7C1049.18 2249.59 1092.37 2208.36 1135.1 2176.67C1173.35 2148.3 1223 2126.49 1271 2130Z" fill="#C9DF55"/>
<path fill-rule="evenodd" clip-rule="evenodd" d="M1412.58 1610.67C1393.32 1627.87 1366.08 1611.97 1345.04 1625.99C1319.95 1642.71 1313.06 1688.9 1285.56 1695.33C1259.55 1701.41 1238.95 1676.2 1226.36 1653.73C1214.68 1632.88 1222.8 1604.09 1220.13 1578.55C1217.07 1549.32 1190.12 1518.17 1209.6 1493.48C1230.43 1467.07 1267.12 1493.78 1296.1 1482.24C1318.68 1473.25 1331.69 1441.64 1354.68 1435.71C1382.85 1428.45 1415.27 1427.16 1434.09 1446.66C1453.14 1466.41 1452.92 1501.91 1448.8 1533.28C1445.12 1561.36 1433.92 1591.6 1412.58 1610.67Z" fill="#C9DF55"/>
<path fill-rule="evenodd" clip-rule="evenodd" d="M541.669 2022.46C541.243 2034.91 538.545 2047 532.495 2058.55L541.669 2022.46ZM533.141 1968.82C535.699 1977.63 537.909 1986.37 539.446 1995.01L518.34 2078.66C512.569 2085.05 506.015 2090.72 498.862 2095.74L533.141 1968.82ZM520.43 1929.17C521.645 1932.91 522.886 1936.66 524.126 1940.42C525.717 1945.23 527.308 1950.04 528.847 1954.84L490.827 2100.95C484.558 2104.71 477.922 2108.03 471.022 2110.93L520.43 1929.17ZM506.9 1879.75C508.008 1883.29 508.966 1886.89 509.72 1890.58C510.843 1896.09 512.214 1901.63 513.749 1907.2L453.006 2117.42C448.972 2118.65 444.883 2119.76 440.758 2120.75L506.9 1879.75ZM491.765 1843.72C492.741 1845.86 493.731 1848 494.721 1850.14C496.611 1854.22 498.503 1858.3 500.3 1862.44L432.658 2122.54C426.867 2123.7 421.027 2124.65 415.185 2125.39L491.765 1843.72ZM478.66 1802.59C478.77 1803.55 478.896 1804.5 479.039 1805.45C480.309 1813.87 482.737 1821.81 485.718 1829.53L403.783 2126.57C401.146 2126.78 398.515 2126.95 395.894 2127.08L478.66 1802.59ZM487.282 1697.08C489.158 1708.34 488.161 1720.43 486.251 1732.87L386.281 2127.39C382.6 2127.44 378.952 2127.41 375.348 2127.3C373.948 2127.26 372.556 2127.2 371.172 2127.1L487.282 1697.08ZM471.512 1666.36C473.389 1668.34 475.17 1670.41 476.845 1672.59C478.55 1674.8 480.028 1677.07 481.303 1679.4L365.179 2126.55C359.075 2125.84 353.118 2124.65 347.286 2123.06L471.512 1666.36ZM449.545 1649.51C454.806 1652.44 459.759 1655.8 464.31 1659.6L331.889 2117.89C328.612 2116.58 325.372 2115.17 322.162 2113.65L449.545 1649.51ZM426.705 1639.92C430.242 1640.99 433.716 1642.21 437.105 1643.58L315.693 2110.44C310.744 2107.88 305.864 2105.09 301.037 2102.15L426.705 1639.92ZM402.687 1634.95C408.641 1635.66 414.543 1636.73 420.311 1638.16L293.43 2097.35C291.064 2095.82 288.709 2094.25 286.362 2092.65L402.687 1634.95ZM385.184 1633.9C387.834 1633.91 390.489 1633.98 393.143 1634.13L278.782 2087.4C274.275 2084.22 269.792 2080.97 265.318 2077.69L385.184 1633.9ZM361.69 1635.66C365.879 1635.01 370.142 1634.54 374.446 1634.25L260.055 2073.83C259.494 2073.42 258.933 2073.01 258.371 2072.59C254.079 2069.44 249.788 2066.28 245.485 2063.17L361.69 1635.66ZM332.642 1645.03C337.914 1641.93 343.624 1639.52 349.915 1637.99C350.655 1637.81 351.398 1637.63 352.145 1637.46L231.909 2053.58C231.202 2053.09 230.494 2052.61 229.785 2052.13C227.324 2050.46 224.813 2048.83 222.263 2047.21L332.642 1645.03ZM297.962 1679.23C303.542 1671.84 309.258 1664.75 315.508 1658.53L215.517 2043.02C210.865 2040.2 206.116 2037.42 201.331 2034.65L297.962 1679.23ZM261.102 1724.21C269.091 1716.96 276.104 1708.45 282.8 1699.64L191.892 2029.21C189.395 2027.77 186.9 2026.33 184.414 2024.88L261.102 1724.21ZM224.881 1750.24C228.858 1747.74 232.835 1745.22 236.768 1742.61L167.787 2014.84C163.633 2012.22 159.564 2009.53 155.622 2006.76L224.881 1750.24ZM192.133 1772.24C198.081 1767.6 204.36 1763.32 210.779 1759.17L147.951 2001.11C142.745 1997.08 137.84 1992.85 133.352 1988.34L192.133 1772.24ZM146 1828.77C149.92 1822.94 153.902 1817.2 157.83 1811.53C160.887 1807.11 163.912 1802.75 166.847 1798.43C167.957 1796.8 169.108 1795.22 170.296 1793.68L119.143 1970.71C116.039 1965.77 113.422 1960.51 111.388 1954.88L146 1828.77ZM106.442 1926.7C106.288 1907.68 112.143 1889.02 120.959 1870.87L106.442 1926.7Z" fill="#476FB2"/>
<path fill-rule="evenodd" clip-rule="evenodd" d="M364.952 1937.95C338.484 1972.38 288.511 1954.58 258.099 1984.31C221.851 2019.75 224.834 2098.23 181.387 2117.42C140.292 2135.56 98.4154 2100.32 70.6084 2067.1C44.8099 2036.28 49.2579 1986.17 36.8954 1944.8C22.741 1897.44 -31.485 1854.35 -6.97865 1807.47C19.2201 1757.35 88.1698 1790.06 132.464 1761.97C166.982 1740.08 178.647 1683.8 214.79 1666.85C259.085 1646.07 312.271 1633.84 349.444 1660.22C387.071 1686.92 397.754 1745.67 400.72 1798.78C403.375 1846.33 394.285 1899.79 364.952 1937.95Z" fill="#EFC825"/>
<path fill-rule="evenodd" clip-rule="evenodd" d="M912.626 867.397C924.762 864.576 937.137 864.044 949.864 866.888L912.626 867.397ZM863.045 889.552C870.882 884.798 878.756 880.393 886.701 876.666L972.964 875.337C980.626 879.254 987.808 884.11 994.508 889.716L863.045 889.552ZM828.047 912.121C831.35 909.974 834.65 907.803 837.951 905.631C842.185 902.846 846.42 900.06 850.659 897.327L1001.63 896.123C1006.89 901.201 1011.81 906.748 1016.41 912.658L828.047 912.121ZM783.837 938.012C786.964 936.024 790.195 934.164 793.565 932.478C798.588 929.964 803.586 927.202 808.567 924.274L1027.35 928.373C1029.58 931.95 1031.72 935.611 1033.74 939.337L783.837 938.012ZM752.964 961.981C754.781 960.483 756.589 958.972 758.398 957.46C761.85 954.575 765.305 951.688 768.827 948.88L1037.57 946.696C1040.2 951.986 1042.63 957.38 1044.86 962.83L752.964 961.981ZM716.647 985.312C717.544 984.957 718.433 984.588 719.315 984.202C727.115 980.791 734.153 976.386 740.835 971.503L1048.96 973.535C1049.85 976.027 1050.7 978.523 1051.5 981.02L716.647 985.312ZM612.516 1004.37C622.909 999.635 634.835 997.461 647.347 996.077L1054.29 990.224C1055.3 993.766 1056.21 997.298 1057.05 1000.81C1057.37 1002.17 1057.67 1003.53 1057.94 1004.89L612.516 1004.37ZM586.941 1027.57C588.366 1025.25 589.909 1022.99 591.572 1020.81C593.265 1018.59 595.075 1016.57 596.992 1014.73L1058.97 1010.82C1059.86 1016.9 1060.25 1022.96 1060.24 1029.01L586.941 1027.57ZM576.371 1053.16C577.837 1047.32 579.796 1041.66 582.287 1036.28L1059.24 1045.22C1058.83 1048.72 1058.3 1052.22 1057.67 1055.71L576.371 1053.16ZM573.042 1077.71C573.159 1074.01 573.434 1070.34 573.875 1066.71L1056.25 1062.79C1055.06 1068.24 1053.63 1073.67 1052.04 1079.1L573.042 1077.71ZM574.477 1102.19C573.614 1096.26 573.111 1090.28 573 1084.34L1049.39 1087.69C1048.52 1090.37 1047.61 1093.05 1046.68 1095.73L574.477 1102.19ZM578.004 1119.37C577.323 1116.81 576.707 1114.22 576.158 1111.62L1043.58 1104.42C1041.68 1109.6 1039.7 1114.77 1037.7 1119.94L578.004 1119.37ZM585.795 1141.6C584.083 1137.72 582.522 1133.73 581.125 1129.65L1035.33 1126.02C1035.08 1126.67 1034.83 1127.32 1034.57 1127.97C1032.64 1132.94 1030.71 1137.9 1028.82 1142.86L585.795 1141.6ZM602.383 1167.22C598.028 1162.93 594.215 1158.04 591.103 1152.37C590.737 1151.7 590.375 1151.03 590.019 1150.35L1023.08 1158.46C1022.79 1159.27 1022.51 1160.08 1022.23 1160.89C1021.26 1163.7 1020.33 1166.55 1019.43 1169.43L602.383 1167.22ZM644.412 1191.84C635.832 1188.36 627.505 1184.68 619.876 1180.26L1017.14 1177.03C1015.62 1182.26 1014.17 1187.57 1012.74 1192.91L644.412 1191.84ZM697.422 1215.76C688.343 1209.92 678.311 1205.36 668.065 1201.18L1009.93 1203.43C1009.19 1206.22 1008.45 1209 1007.69 1211.78L697.422 1215.76ZM731.964 1243.98C728.514 1240.79 725.044 1237.6 721.511 1234.48L1002.31 1230.44C1000.86 1235.13 999.319 1239.76 997.663 1244.29L731.964 1243.98ZM761.705 1269.9C755.68 1265.36 749.923 1260.4 744.248 1255.28L994.196 1253.16C991.658 1259.24 988.845 1265.07 985.656 1270.58L761.705 1269.9ZM828.269 1299.78C821.629 1297.5 815.044 1295.15 808.55 1292.83C803.494 1291.02 798.493 1289.23 793.565 1287.52C791.702 1286.87 789.875 1286.17 788.081 1285.42L972.322 1288.87C968.357 1293.15 963.958 1297.04 959.044 1300.47L828.269 1299.78ZM933.111 1312.56C914.785 1317.65 895.244 1316.84 875.433 1313.03L933.111 1312.56Z" fill="#EFC825"/>
<path fill-rule="evenodd" clip-rule="evenodd" d="M725.588 959.478C778.056 933.224 827.735 879.798 884.518 894.523C940.513 909.043 975.68 971.472 989.071 1027.81C1002.02 1082.27 972.532 1134.98 954.256 1187.89C936.386 1239.62 931.892 1305.35 884.045 1331.85C836.385 1358.24 777.035 1332.42 725.588 1314.52C687.494 1301.26 664.588 1266.2 631.034 1243.8C595.315 1219.95 543.78 1217.04 523.126 1179.37C501.522 1139.96 496.35 1083.54 523.595 1047.81C551.142 1011.68 609.732 1029.4 651.339 1011.2C679.663 998.816 697.941 973.312 725.588 959.478Z" fill="#476FB2"/>
</svg>
